src/assets/skills/amazon-web-services.svg

<svg height="100pt" viewBox="0 0 100 100" width="100pt" xmlns="http://www.w3.org/2000/svg"><path d="m0 0h100v100h-100z" fill="#252f3e"/><path d="m34.727 44.273c0 .861.093 1.56.256 2.072.186.512.419 1.071.745 1.676.116.186.163.373.163.536 0 .232-.14.465-.443.698l-1.466.978c-.21.14-.419.209-.606.209-.232 0-.465-.116-.698-.326-.326-.349-.605-.721-.838-1.094-.233-.396-.466-.838-.722-1.373-1.816 2.141-4.097 3.212-6.845 3.212-1.955 0-3.515-.558-4.656-1.676-1.141-1.117-1.723-2.607-1.723-4.47 0-1.979.699-3.585 2.119-4.796 1.42-1.21 3.306-1.816 5.704-1.816.791 0 1.606.07 2.468.187.861.116 1.746.302 2.677.512v-1.7c0-1.769-.373-3.003-1.094-3.725-.745-.722-2.002-1.071-3.795-1.071-.815 0-1.653.093-2.514.303-.862.209-1.7.466-2.515.791-.372.163-.652.257-.815.303-.163.047-.279.07-.372.07-.326 0-.489-.233-.489-.722v-1.141c0-.372.046-.651.163-.814.116-.163.326-.326.652-.489.815-.419 1.792-.769 2.933-1.048 1.141-.303 2.352-.442 3.632-.442 2.771 0 4.796.628 6.1 1.885 1.28 1.258 1.932 3.167 1.932 5.728v7.543zm-9.453 3.539c.769 0 1.56-.14 2.398-.42.839-.279 1.584-.791 2.212-1.49.373-.442.652-.931.792-1.49.139-.558.233-1.233.233-2.025v-.978c-.676-.163-1.397-.302-2.142-.396-.745-.093-1.467-.139-2.189-.139-1.56 0-2.7.302-3.469.931-.768.629-1.14 1.513-1.14 2.677 0 1.095.279 1.909.861 2.468.559.582 1.374.862 2.444.862zm18.695 2.514c-.419 0-.698-.07-.884-.233-.187-.14-.35-.465-.489-.908l-5.471-17.996c-.14-.466-.21-.769-.21-.932 0-.372.186-.582.559-.582h2.281c.443 0 .745.07.908.233.187.14.326.466.466.908l3.911 15.412 3.632-15.412c.117-.465.256-.768.443-.908.186-.139.512-.233.931-.233h1.862c.443 0 .745.07.932.233.186.14.349.466.442.908l3.678 15.599 4.028-15.599c.14-.465.303-.768.466-.908.186-.139.488-.233.908-.233h2.165c.372 0 .582.187.582.582 0 .117-.024.233-.047.373s-.07.326-.163.582l-5.611 17.996c-.139.466-.302.769-.488.908-.187.14-.489.233-.885.233h-2.002c-.443 0-.745-.07-.932-.233-.186-.163-.349-.465-.442-.931l-3.609-15.016-3.585 14.993c-.116.466-.256.768-.442.931s-.512.233-.931.233zm29.917.629c-1.211 0-2.421-.14-3.586-.42-1.164-.279-2.072-.582-2.677-.931-.372-.209-.628-.442-.722-.652-.093-.209-.139-.442-.139-.652v-1.187c0-.489.186-.722.535-.722.14 0 .28.024.419.07.14.047.349.14.582.233.792.349 1.653.629 2.561.815.931.186 1.839.279 2.771.279 1.466 0 2.607-.256 3.399-.768.791-.512 1.21-1.257 1.21-2.212 0-.652-.209-1.187-.628-1.629-.419-.443-1.211-.839-2.352-1.211l-3.375-1.048c-1.7-.535-2.957-1.327-3.725-2.374-.769-1.025-1.164-2.166-1.164-3.376 0-.978.209-1.839.628-2.584s.978-1.397 1.676-1.909c.699-.536 1.49-.932 2.422-1.211.931-.279 1.909-.396 2.933-.396.512 0 1.048.023 1.56.093.535.07 1.024.163 1.513.256.466.117.908.233 1.327.373s.745.279.978.419c.326.186.559.372.698.582.14.186.21.442.21.768v1.094c0 .489-.186.745-.535.745-.187 0-.489-.093-.885-.279-1.327-.605-2.817-.908-4.47-.908-1.327 0-2.375.21-3.097.652-.721.442-1.094 1.117-1.094 2.072 0 .652.233 1.211.699 1.653.465.442 1.327.885 2.561 1.28l3.306 1.048c1.676.536 2.886 1.281 3.608 2.235.722.955 1.071 2.049 1.071 3.259 0 1.002-.209 1.91-.605 2.701-.419.792-.978 1.49-1.7 2.049-.722.582-1.583 1.001-2.584 1.304-1.048.326-2.142.489-3.329.489z" fill="#fff"/><g fill="#f90" fill-rule="evenodd"><path d="m78.286 62.269c-7.66 5.658-18.788 8.661-28.357 8.661-13.41 0-25.493-4.959-34.619-13.201-.722-.651-.07-1.536.792-1.024 9.871 5.727 22.047 9.196 34.642 9.196 8.498 0 17.834-1.769 26.424-5.401 1.281-.582 2.375.838 1.118 1.769z"/><path d="m81.475 58.637c-.977-1.257-6.472-.605-8.963-.302-.745.093-.861-.559-.186-1.048 4.377-3.073 11.571-2.188 12.409-1.164.838 1.048-.233 8.242-4.33 11.687-.629.536-1.234.256-.955-.442.931-2.305 3.003-7.497 2.025-8.731z"/></g></svg>

<?xml version="1.0" encoding="UTF-8" standalone="no"?><!-- Generator: Gravit.io --><svg xmlns="http://www.w3.org/2000/svg" xmlns:xlink="http://www.w3.org/1999/xlink" style="isolation:isolate" viewBox="0 0 100 100" width="100pt" height="100pt"><rect x="0" y="0" width="100" height="100" transform="matrix(1,0,0,1,0,0)" fill="rgb(37,47,62)"/><g><path d=" M 34.727 44.273 C 34.727 45.134 34.82 45.833 34.983 46.345 C 35.169 46.857 35.402 47.416 35.728 48.021 C 35.844 48.207 35.891 48.394 35.891 48.557 C 35.891 48.789 35.751 49.022 35.448 49.255 L 33.982 50.233 C 33.772 50.373 33.563 50.442 33.376 50.442 C 33.144 50.442 32.911 50.326 32.678 50.116 C 32.352 49.767 32.073 49.395 31.84 49.022 C 31.607 48.626 31.374 48.184 31.118 47.649 C 29.302 49.79 27.021 50.861 24.273 50.861 C 22.318 50.861 20.758 50.303 19.617 49.185 C 18.476 48.068 17.894 46.578 17.894 44.715 C 17.894 42.736 18.593 41.13 20.013 39.919 C 21.433 38.709 23.319 38.103 25.717 38.103 C 26.508 38.103 27.323 38.173 28.185 38.29 C 29.046 38.406 29.931 38.592 30.862 38.802 L 30.862 37.102 C 30.862 35.333 30.489 34.099 29.768 33.377 C 29.023 32.655 27.766 32.306 25.973 32.306 C 25.158 32.306 24.32 32.399 23.459 32.609 C 22.597 32.818 21.759 33.075 20.944 33.4 C 20.572 33.563 20.292 33.657 20.129 33.703 C 19.966 33.75 19.85 33.773 19.757 33.773 C 19.431 33.773 19.268 33.54 19.268 33.051 L 19.268 31.91 C 19.268 31.538 19.314 31.259 19.431 31.096 C 19.547 30.933 19.757 30.77 20.083 30.607 C 20.898 30.188 21.875 29.838 23.016 29.559 C 24.157 29.256 25.368 29.117 26.648 29.117 C 29.419 29.117 31.444 29.745 32.748 31.002 C 34.028 32.26 34.68 34.169 34.68 36.73 L 34.68 44.273 L 34.727 44.273 Z  M 25.274 47.812 C 26.043 47.812 26.834 47.672 27.672 47.392 C 28.511 47.113 29.256 46.601 29.884 45.902 C 30.257 45.46 30.536 44.971 30.676 44.412 C 30.815 43.854 30.909 43.179 30.909 42.387 L 30.909 41.409 C 30.233 41.246 29.512 41.107 28.767 41.013 C 28.022 40.92 27.3 40.874 26.578 40.874 C 25.018 40.874 23.878 41.176 23.109 41.805 C 22.341 42.434 21.969 43.318 21.969 44.482 C 21.969 45.577 22.248 46.391 22.83 46.95 C 23.389 47.532 24.204 47.812 25.274 47.812 Z  M 43.969 50.326 C 43.55 50.326 43.271 50.256 43.085 50.093 C 42.898 49.953 42.735 49.628 42.596 49.185 L 37.125 31.189 C 36.985 30.723 36.915 30.42 36.915 30.257 C 36.915 29.885 37.101 29.675 37.474 29.675 L 39.755 29.675 C 40.198 29.675 40.5 29.745 40.663 29.908 C 40.85 30.048 40.989 30.374 41.129 30.816 L 45.04 46.228 L 48.672 30.816 C 48.789 30.351 48.928 30.048 49.115 29.908 C 49.301 29.769 49.627 29.675 50.046 29.675 L 51.908 29.675 C 52.351 29.675 52.653 29.745 52.84 29.908 C 53.026 30.048 53.189 30.374 53.282 30.816 L 56.96 46.415 L 60.988 30.816 C 61.128 30.351 61.291 30.048 61.454 29.908 C 61.64 29.769 61.942 29.675 62.362 29.675 L 64.527 29.675 C 64.899 29.675 65.109 29.862 65.109 30.257 C 65.109 30.374 65.085 30.49 65.062 30.63 C 65.039 30.77 64.992 30.956 64.899 31.212 L 59.288 49.208 C 59.149 49.674 58.986 49.977 58.8 50.116 C 58.613 50.256 58.311 50.349 57.915 50.349 L 55.913 50.349 C 55.47 50.349 55.168 50.279 54.981 50.116 C 54.795 49.953 54.632 49.651 54.539 49.185 L 50.93 34.169 L 47.345 49.162 C 47.229 49.628 47.089 49.93 46.903 50.093 C 46.717 50.256 46.391 50.326 45.972 50.326 L 43.969 50.326 Z  M 73.886 50.955 C 72.675 50.955 71.465 50.815 70.3 50.535 C 69.136 50.256 68.228 49.953 67.623 49.604 C 67.251 49.395 66.995 49.162 66.901 48.952 C 66.808 48.743 66.762 48.51 66.762 48.3 L 66.762 47.113 C 66.762 46.624 66.948 46.391 67.297 46.391 C 67.437 46.391 67.577 46.415 67.716 46.461 C 67.856 46.508 68.065 46.601 68.298 46.694 C 69.09 47.043 69.951 47.323 70.859 47.509 C 71.79 47.695 72.698 47.788 73.63 47.788 C 75.096 47.788 76.237 47.532 77.029 47.02 C 77.82 46.508 78.239 45.763 78.239 44.808 C 78.239 44.156 78.03 43.621 77.611 43.179 C 77.192 42.736 76.4 42.34 75.259 41.968 L 71.884 40.92 C 70.184 40.385 68.927 39.593 68.159 38.546 C 67.39 37.521 66.995 36.38 66.995 35.17 C 66.995 34.192 67.204 33.331 67.623 32.586 C 68.042 31.841 68.601 31.189 69.299 30.677 C 69.998 30.141 70.789 29.745 71.721 29.466 C 72.652 29.187 73.63 29.07 74.654 29.07 C 75.166 29.07 75.702 29.093 76.214 29.163 C 76.749 29.233 77.238 29.326 77.727 29.419 C 78.193 29.536 78.635 29.652 79.054 29.792 C 79.473 29.932 79.799 30.071 80.032 30.211 C 80.358 30.397 80.591 30.583 80.73 30.793 C 80.87 30.979 80.94 31.235 80.94 31.561 L 80.94 32.655 C 80.94 33.144 80.754 33.4 80.405 33.4 C 80.218 33.4 79.916 33.307 79.52 33.121 C 78.193 32.516 76.703 32.213 75.05 32.213 C 73.723 32.213 72.675 32.423 71.953 32.865 C 71.232 33.307 70.859 33.982 70.859 34.937 C 70.859 35.589 71.092 36.148 71.558 36.59 C 72.023 37.032 72.885 37.475 74.119 37.87 L 77.425 38.918 C 79.101 39.454 80.311 40.199 81.033 41.153 C 81.755 42.108 82.104 43.202 82.104 44.412 C 82.104 45.414 81.895 46.322 81.499 47.113 C 81.08 47.905 80.521 48.603 79.799 49.162 C 79.077 49.744 78.216 50.163 77.215 50.466 C 76.167 50.792 75.073 50.955 73.886 50.955 Z " fill="rgb(255,255,255)"/><g><path d=" M 78.286 62.269 C 70.626 67.927 59.498 70.93 49.929 70.93 C 36.519 70.93 24.436 65.971 15.31 57.729 C 14.588 57.078 15.24 56.193 16.102 56.705 C 25.973 62.432 38.149 65.901 50.744 65.901 C 59.242 65.901 68.578 64.132 77.168 60.5 C 78.449 59.918 79.543 61.338 78.286 62.269 Z " fill-rule="evenodd" fill="rgb(255,153,0)"/><path d=" M 81.475 58.637 C 80.498 57.38 75.003 58.032 72.512 58.335 C 71.767 58.428 71.651 57.776 72.326 57.287 C 76.703 54.214 83.897 55.099 84.735 56.123 C 85.573 57.171 84.502 64.365 80.405 67.81 C 79.776 68.346 79.171 68.066 79.45 67.368 C 80.381 65.063 82.453 59.871 81.475 58.637 Z " fill-rule="evenodd" fill="rgb(255,153,0)"/></g></g><g/></svg>
